src/lib/packages/icons/src/assets/filled/mastercard.svg

<svg width="24" height="24" viewBox="0 0 24 24" fill="none" xmlns="http://www.w3.org/2000/svg">
<path d="M15.23 16.13C15.23 16.31 15.11 16.44 14.93 16.44C14.75 16.44 14.64 16.3 14.64 16.13C14.64 15.96 14.75 15.82 14.93 15.82C15.11 15.82 15.23 15.96 15.23 16.13ZM8.90002 15.82C8.71002 15.82 8.59998 15.96 8.59998 16.13C8.59998 16.3 8.71002 16.44 8.90002 16.44C9.07002 16.44 9.19 16.31 9.19 16.13C9.19 15.96 9.07002 15.82 8.90002 15.82ZM12.05 15.82C11.91 15.82 11.82 15.91 11.8 16.05H12.31C12.29 15.9 12.19 15.82 12.05 15.82ZM16.93 15.82C16.75 15.82 16.63 15.96 16.63 16.13C16.63 16.3 16.75 16.44 16.93 16.44C17.11 16.44 17.23 16.31 17.23 16.13C17.23 15.95 17.11 15.82 16.93 15.82ZM21.01 8V16C21.01 18 20.01 19 18.01 19H6.01001C4.01001 19 3.01001 18 3.01001 16V8C3.01001 6 4.01001 5 6.01001 5H18.01C20.01 5 21.01 6 21.01 8ZM6.01001 11.05C6.01001 13.1 7.66997 14.76 9.71997 14.76C10.45 14.76 11.16 14.54 11.77 14.14C9.82002 12.55 9.83002 9.55 11.77 7.97C11.16 7.57 10.45 7.35001 9.71997 7.35001C7.66997 7.35001 6.01001 9.00999 6.01001 11.05ZM12.01 13.96C13.9 12.49 13.89 9.62 12.01 8.13C10.13 9.61 10.12 12.49 12.01 13.96ZM8.20001 16C8.20001 15.77 8.05 15.61 7.81 15.61C7.69 15.61 7.55997 15.65 7.46997 15.78C7.40997 15.67 7.30001 15.61 7.14001 15.61C7.04001 15.61 6.93999 15.65 6.85999 15.75V15.63H6.64001V16.61H6.85999C6.85999 16.1 6.78998 15.8 7.09998 15.8C7.36998 15.8 7.32001 16.07 7.32001 16.61H7.53003C7.53003 16.12 7.46002 15.8 7.77002 15.8C8.04002 15.8 7.98999 16.07 7.98999 16.61H8.21002V15.99L8.20001 16ZM9.40002 15.63H9.19V15.75C9.12 15.66 9.02 15.61 8.88 15.61C8.6 15.61 8.39001 15.83 8.39001 16.13C8.39001 16.43 8.6 16.65 8.88 16.65C9.02 16.65 9.12 16.6 9.19 16.51V16.63H9.40002V15.64V15.63ZM10.48 16.32C10.48 15.92 9.87 16.1 9.87 15.91C9.87 15.76 10.19 15.78 10.37 15.88L10.46 15.71C10.21 15.55 9.65002 15.55 9.65002 15.93C9.65002 16.31 10.26 16.15 10.26 16.33C10.26 16.5 9.90002 16.49 9.71002 16.35L9.62 16.52C9.92 16.72 10.49 16.68 10.49 16.32H10.48ZM11.43 16.57L11.37 16.39C11.27 16.45 11.04 16.51 11.04 16.28V15.84H11.39V15.64H11.04V15.34H10.82V15.64H10.62V15.84H10.82V16.29C10.82 16.76 11.28 16.68 11.43 16.58V16.57ZM11.79 16.21H12.53C12.53 15.78 12.33 15.6 12.06 15.6C11.78 15.6 11.57 15.81 11.57 16.12C11.57 16.67 12.18 16.76 12.48 16.5L12.38 16.34C12.17 16.51 11.86 16.5 11.79 16.21ZM13.37 15.63C13.25 15.58 13.06 15.58 12.96 15.75V15.63H12.74V16.61H12.96V16.06C12.96 15.75 13.21 15.79 13.3 15.84L13.36 15.64L13.37 15.63ZM13.65 16.12C13.65 15.81 13.96 15.72 14.2 15.89L14.3 15.72C13.99 15.48 13.42 15.61 13.42 16.12C13.42 16.63 14.02 16.76 14.3 16.52L14.2 16.35C13.95 16.52 13.65 16.42 13.65 16.12ZM15.44 15.63H15.22V15.75C15 15.46 14.42 15.62 14.42 16.12C14.42 16.62 15.02 16.78 15.22 16.49V16.61H15.44V15.62V15.63ZM16.34 15.63C16.28 15.6 16.05 15.55 15.93 15.75V15.63H15.72V16.61H15.93V16.06C15.93 15.77 16.17 15.78 16.27 15.84L16.33 15.64L16.34 15.63ZM17.42 15.23H17.21V15.75C16.99 15.46 16.41 15.61 16.41 16.12C16.41 16.63 17.01 16.78 17.21 16.49V16.61H17.42V15.23ZM18 11.04C18 9.00001 16.34 7.34 14.29 7.34C13.56 7.34 12.85 7.55999 12.24 7.95999C14.17 9.54999 14.2 12.55 12.24 14.13C12.85 14.53 13.57 14.75 14.29 14.75C16.34 14.75 18 13.09 18 11.04Z" fill="currentColor"/>
</svg>

<svg xmlns="http://www.w3.org/2000/svg" width="24" height="24" fill="none"><path fill="currentColor" d="M15.23 16.13c0 .18-.12.31-.3.31s-.29-.14-.29-.31c0-.17.11-.31.29-.31s.3.14.3.31Zm-6.33-.31c-.19 0-.3.14-.3.31 0 .17.11.31.3.31.17 0 .29-.13.29-.31 0-.17-.12-.31-.29-.31Zm3.15 0c-.14 0-.23.09-.25.23h.51c-.02-.15-.12-.23-.26-.23Zm4.88 0c-.18 0-.3.14-.3.31 0 .17.12.31.3.31s.3-.13.3-.31-.12-.31-.3-.31ZM21.01 8v8c0 2-1 3-3 3h-12c-2 0-3-1-3-3V8c0-2 1-3 3-3h12c2 0 3 1 3 3Zm-15 3.05a3.709 3.709 0 0 0 5.76 3.09c-1.95-1.59-1.94-4.59 0-6.17a3.707 3.707 0 0 0-5.76 3.08Zm6 2.91c1.89-1.47 1.88-4.34 0-5.83-1.88 1.48-1.89 4.36 0 5.83ZM8.2 16c0-.23-.15-.39-.39-.39-.12 0-.25.04-.34.17-.06-.11-.17-.17-.33-.17-.1 0-.2.04-.28.14v-.12h-.22v.98h.22c0-.51-.07-.81.24-.81.27 0 .22.27.22.81h.21c0-.49-.07-.81.24-.81.27 0 .22.27.22.81h.22v-.62L8.2 16Zm1.2-.37h-.21v.12a.368.368 0 0 0-.31-.14c-.28 0-.49.22-.49.52 0 .3.21.52.49.52.14 0 .24-.05.31-.14v.12h.21v-1Zm1.08.69c0-.4-.61-.22-.61-.41 0-.15.32-.13.5-.03l.09-.17c-.25-.16-.81-.16-.81.22s.61.22.61.4c0 .17-.36.16-.55.02l-.09.17c.3.2.87.16.87-.2h-.01Zm.95.25-.06-.18c-.1.06-.33.12-.33-.11v-.44h.35v-.2h-.35v-.3h-.22v.3h-.2v.2h.2v.45c0 .47.46.39.61.29v-.01Zm.36-.36h.74c0-.43-.2-.61-.47-.61-.28 0-.49.21-.49.52 0 .55.61.64.91.38l-.1-.16c-.21.17-.52.16-.59-.13Zm1.58-.58c-.12-.05-.31-.05-.41.12v-.12h-.22v.98h.22v-.55c0-.31.25-.27.34-.22l.06-.2.01-.01Zm.28.49c0-.31.31-.4.55-.23l.1-.17c-.31-.24-.88-.11-.88.4s.6.64.88.4l-.1-.17c-.25.17-.55.07-.55-.23Zm1.79-.49h-.22v.12c-.22-.29-.8-.13-.8.37s.6.66.8.37v.12h.22v-.99.01Zm.9 0c-.06-.03-.29-.08-.41.12v-.12h-.21v.98h.21v-.55c0-.29.24-.28.34-.22l.06-.2.01-.01Zm1.08-.4h-.21v.52c-.22-.29-.8-.14-.8.37s.6.66.8.37v.12h.21v-1.38Zm.58-4.19a3.707 3.707 0 0 0-5.76-3.08c1.93 1.59 1.96 4.59 0 6.17.61.4 1.33.62 2.05.62 2.05 0 3.71-1.66 3.71-3.71Z"/></svg>
